img/logo.svg

<svg width="352" height="127" viewBox="0 0 352 127" fill="none" xmlns="http://www.w3.org/2000/svg">
<path d="M5.26074 81.486C11.1167 76.3756 28.6482 68.7829 51.9258 79.2959C81.0228 92.437 110.12 62.3219 122.198 56.2989C134.276 50.2759 145.805 54.1087 151.295 67.2498C153.308 72.7253 158.102 84.8809 161.177 89.6993C165.02 95.7223 172.828 96.4936 185.333 63.417C197.96 30.0166 194.666 31.1116 197.96 19.0656C201.254 7.01954 212.783 -6.12162 212.234 26.7313C211.685 59.5841 209.489 66.1548 207.293 80.9386C205.027 96.1912 204.548 113.244 210.038 120.91C215.528 128.575 235.841 65.0597 237.488 60.6793C239.135 56.2989 250.115 33.3018 248.468 56.2989C246.821 79.2959 242.429 96.2699 246.272 104.483C250.115 112.696 257.801 106.126 267.134 95.1748C276.467 84.2238 277.016 79.8435 289.094 86.414C301.172 92.9846 296.78 100.65 316.544 97.365C336.308 94.0797 342.896 92.9846 346.739 94.0797" stroke="url(#paint0_linear_1_3)" stroke-width="10.3478" stroke-linecap="round"/>
<path d="M12.5617 121.362L9.18429 107.549V122.515C9.18429 123.344 9.00225 123.965 8.63816 124.379C8.28365 124.793 7.80937 125 7.21533 125C6.64045 125 6.17097 124.798 5.80688 124.394C5.44279 123.98 5.26074 123.353 5.26074 122.515V105.36C5.26074 104.414 5.50028 103.778 5.97934 103.452C6.45841 103.117 7.10515 102.949 7.91956 102.949H9.24178C10.037 102.949 10.6119 103.023 10.9664 103.171C11.3305 103.319 11.5988 103.585 11.7712 103.97C11.9437 104.354 12.1401 104.98 12.3605 105.848L15.4217 117.724L18.483 105.848C18.7033 104.98 18.8998 104.354 19.0722 103.97C19.2447 103.585 19.5082 103.319 19.8627 103.171C20.2268 103.023 20.8064 102.949 21.6017 102.949H22.9239C23.7383 102.949 24.3851 103.117 24.8641 103.452C25.3432 103.778 25.5827 104.414 25.5827 105.36V122.515C25.5827 123.344 25.4007 123.965 25.0366 124.379C24.6821 124.793 24.203 125 23.5994 125C23.0341 125 22.5694 124.793 22.2053 124.379C21.8412 123.965 21.6592 123.344 21.6592 122.515V107.549L18.2818 121.362C18.0614 122.259 17.8793 122.92 17.7356 123.344C17.6015 123.758 17.3476 124.137 16.9739 124.482C16.6002 124.827 16.0828 125 15.4217 125C14.9235 125 14.5019 124.887 14.157 124.66C13.8121 124.443 13.5438 124.162 13.3522 123.817C13.1605 123.472 13.0072 123.092 12.8923 122.678C12.7869 122.254 12.6767 121.815 12.5617 121.362Z" fill="white"/>
<path d="M29.9949 115.668V105.242C29.9949 104.354 30.1865 103.689 30.5698 103.245C30.9626 102.802 31.4752 102.58 32.1076 102.58C32.7687 102.58 33.2909 102.802 33.6741 103.245C34.067 103.689 34.2634 104.354 34.2634 105.242V115.905C34.2634 117.117 34.3927 118.133 34.6514 118.951C34.9197 119.76 35.3892 120.391 36.0599 120.844C36.7306 121.288 37.6696 121.51 38.8768 121.51C40.544 121.51 41.7225 121.056 42.4123 120.149C43.1022 119.232 43.4471 117.847 43.4471 115.993V105.242C43.4471 104.345 43.6387 103.679 44.022 103.245C44.4052 102.802 44.9178 102.58 45.5598 102.58C46.2017 102.58 46.7191 102.802 47.1119 103.245C47.5144 103.679 47.7156 104.345 47.7156 105.242V115.668C47.7156 117.364 47.5527 118.779 47.2269 119.913C46.9107 121.046 46.3071 122.042 45.4161 122.9C44.6495 123.63 43.7585 124.162 42.7429 124.497C41.7272 124.832 40.5392 125 39.1786 125C37.5594 125 36.1653 124.823 34.9964 124.468C33.8274 124.103 32.8741 123.546 32.1363 122.796C31.3986 122.037 30.8572 121.071 30.5123 119.898C30.1674 118.715 29.9949 117.305 29.9949 115.668Z" fill="white"/>
<path d="M51.7685 119.572L62.5906 106.247H53.2919C52.6404 106.247 52.1469 106.1 51.8116 105.804C51.4858 105.508 51.3229 105.119 51.3229 104.635C51.3229 104.133 51.4858 103.728 51.8116 103.423C52.1469 103.107 52.6404 102.949 53.2919 102.949H65.2781C66.8303 102.949 67.6064 103.694 67.6064 105.183C67.6064 105.892 67.477 106.459 67.2183 106.883C66.9597 107.307 66.4375 107.993 65.6518 108.939L55.5339 121.332H66.6866C67.3477 121.332 67.8411 121.475 68.1669 121.761C68.4927 122.037 68.6555 122.427 68.6555 122.93C68.6555 123.452 68.4927 123.866 68.1669 124.172C67.8411 124.477 67.3477 124.63 66.6866 124.63H53.0045C52.0751 124.63 51.3756 124.418 50.9062 123.994C50.4367 123.561 50.2019 122.984 50.2019 122.264C50.2019 122.018 50.2402 121.791 50.3169 121.584C50.3936 121.377 50.4942 121.184 50.6187 121.007C50.7528 120.82 50.9349 120.588 51.1648 120.312C51.3948 120.026 51.596 119.779 51.7685 119.572Z" fill="white"/>
<path d="M87.3679 118.123C87.3679 119.434 87.0373 120.613 86.3762 121.658C85.7247 122.703 84.7665 123.521 83.5018 124.113C82.2371 124.704 80.7376 125 79.0034 125C76.9242 125 75.2092 124.596 73.8582 123.787C72.9001 123.206 72.1192 122.432 71.5156 121.465C70.9215 120.489 70.6245 119.543 70.6245 118.626C70.6245 118.093 70.8018 117.64 71.1563 117.265C71.5204 116.881 71.9803 116.689 72.536 116.689C72.9863 116.689 73.3648 116.836 73.6714 117.132C73.9875 117.428 74.2558 117.867 74.4762 118.448C74.7445 119.139 75.0319 119.715 75.3385 120.179C75.6547 120.642 76.0954 121.027 76.6607 121.332C77.226 121.628 77.9686 121.776 78.8884 121.776C80.1531 121.776 81.1783 121.475 81.964 120.874C82.7592 120.263 83.1569 119.503 83.1569 118.596C83.1569 117.877 82.9413 117.295 82.5101 116.851C82.0886 116.398 81.5376 116.053 80.8574 115.816C80.1867 115.579 79.286 115.328 78.1554 115.062C76.6416 114.697 75.372 114.273 74.3468 113.79C73.3312 113.297 72.5216 112.631 71.918 111.793C71.3239 110.945 71.0269 109.895 71.0269 108.643C71.0269 107.45 71.3431 106.39 71.9755 105.464C72.6078 104.537 73.5229 103.827 74.7205 103.334C75.9182 102.831 77.3266 102.58 78.9459 102.58C80.2394 102.58 81.3556 102.747 82.2946 103.083C83.2431 103.408 84.0288 103.847 84.6516 104.399C85.2743 104.941 85.7295 105.513 86.0169 106.114C86.3043 106.716 86.4481 107.302 86.4481 107.874C86.4481 108.397 86.266 108.87 85.9019 109.294C85.5474 109.708 85.1019 109.915 84.5653 109.915C84.0767 109.915 83.703 109.792 83.4443 109.545C83.1952 109.289 82.9221 108.875 82.6251 108.303C82.2419 107.485 81.782 106.849 81.2454 106.395C80.7088 105.932 79.8465 105.7 78.6584 105.7C77.5566 105.7 76.6655 105.952 75.9853 106.454C75.3146 106.947 74.9792 107.544 74.9792 108.244C74.9792 108.678 75.0942 109.052 75.3241 109.368C75.5541 109.683 75.8703 109.955 76.2727 110.181C76.6751 110.408 77.0823 110.586 77.4943 110.714C77.9063 110.842 78.5866 111.029 79.5351 111.276C80.7232 111.562 81.7963 111.877 82.7545 112.222C83.7222 112.567 84.5414 112.986 85.2121 113.479C85.8923 113.972 86.4193 114.598 86.793 115.358C87.1762 116.107 87.3679 117.029 87.3679 118.123Z" fill="white"/>
<path d="M104.672 106.573H100.015V122.323C100.015 123.23 99.8188 123.906 99.426 124.349C99.0331 124.783 98.5253 125 97.9025 125C97.2702 125 96.7528 124.778 96.3503 124.334C95.9575 123.891 95.7611 123.22 95.7611 122.323V106.573H91.1046C90.3764 106.573 89.8351 106.41 89.4805 106.085C89.126 105.75 88.9488 105.311 88.9488 104.769C88.9488 104.207 89.1308 103.763 89.4949 103.437C89.8686 103.112 90.4051 102.949 91.1046 102.949H104.672C105.409 102.949 105.956 103.117 106.31 103.452C106.674 103.787 106.856 104.226 106.856 104.769C106.856 105.311 106.674 105.75 106.31 106.085C105.946 106.41 105.4 106.573 104.672 106.573Z" fill="white"/>
<path d="M115.12 115.358H113.625V122.323C113.625 123.24 113.429 123.915 113.036 124.349C112.643 124.783 112.131 125 111.498 125C110.818 125 110.291 124.773 109.918 124.32C109.544 123.866 109.357 123.201 109.357 122.323V105.641C109.357 104.695 109.563 104.009 109.975 103.585C110.387 103.161 111.053 102.949 111.973 102.949H118.914C119.872 102.949 120.692 102.994 121.372 103.083C122.052 103.161 122.665 103.329 123.212 103.585C123.873 103.871 124.457 104.28 124.965 104.813C125.473 105.345 125.856 105.966 126.115 106.676C126.383 107.376 126.517 108.121 126.517 108.909C126.517 110.526 126.072 111.818 125.181 112.784C124.299 113.75 122.958 114.436 121.156 114.84C121.913 115.254 122.637 115.865 123.327 116.674C124.016 117.482 124.63 118.345 125.166 119.262C125.712 120.169 126.134 120.992 126.431 121.732C126.738 122.461 126.891 122.964 126.891 123.24C126.891 123.526 126.8 123.812 126.618 124.098C126.445 124.374 126.206 124.591 125.899 124.749C125.593 124.916 125.238 125 124.836 125C124.357 125 123.954 124.882 123.628 124.645C123.303 124.418 123.02 124.127 122.78 123.773C122.55 123.418 122.234 122.895 121.832 122.205L120.122 119.277C119.508 118.202 118.957 117.384 118.469 116.822C117.99 116.26 117.501 115.875 117.003 115.668C116.505 115.461 115.877 115.358 115.12 115.358ZM117.563 106.247H113.625V112.207H117.448C118.474 112.207 119.336 112.119 120.035 111.941C120.735 111.754 121.267 111.443 121.631 111.01C122.004 110.566 122.191 109.959 122.191 109.19C122.191 108.589 122.043 108.062 121.746 107.608C121.449 107.145 121.037 106.8 120.51 106.573C120.011 106.356 119.029 106.247 117.563 106.247Z" fill="white"/>
<path d="M144.453 106.336H134.839V111.66H143.692C144.343 111.66 144.827 111.813 145.143 112.119C145.469 112.414 145.632 112.809 145.632 113.302C145.632 113.795 145.474 114.199 145.158 114.515C144.841 114.82 144.353 114.973 143.692 114.973H134.839V121.14H144.784C145.455 121.14 145.958 121.303 146.293 121.628C146.638 121.944 146.81 122.368 146.81 122.9C146.81 123.413 146.638 123.832 146.293 124.157C145.958 124.473 145.455 124.63 144.784 124.63H133.186C132.256 124.63 131.586 124.418 131.174 123.994C130.771 123.57 130.57 122.885 130.57 121.939V105.641C130.57 105.01 130.661 104.497 130.843 104.103C131.025 103.699 131.308 103.408 131.691 103.23C132.084 103.043 132.582 102.949 133.186 102.949H144.453C145.134 102.949 145.637 103.107 145.962 103.423C146.298 103.728 146.465 104.133 146.465 104.635C146.465 105.148 146.298 105.562 145.962 105.878C145.637 106.183 145.134 106.336 144.453 106.336Z" fill="white"/>
<path d="M163.683 122.175L162.677 119.454H154.111L153.105 122.234C152.712 123.319 152.377 124.053 152.099 124.438C151.821 124.813 151.366 125 150.734 125C150.197 125 149.723 124.798 149.311 124.394C148.899 123.989 148.693 123.531 148.693 123.018C148.693 122.722 148.741 122.417 148.837 122.101C148.933 121.786 149.091 121.347 149.311 120.785L154.701 106.706C154.854 106.302 155.036 105.819 155.247 105.257C155.467 104.685 155.697 104.211 155.937 103.837C156.186 103.462 156.507 103.161 156.9 102.935C157.302 102.698 157.795 102.58 158.38 102.58C158.974 102.58 159.467 102.698 159.86 102.935C160.263 103.161 160.584 103.457 160.823 103.822C161.072 104.187 161.278 104.581 161.441 105.005C161.614 105.419 161.829 105.976 162.088 106.676L167.592 120.667C168.023 121.732 168.239 122.506 168.239 122.989C168.239 123.492 168.033 123.955 167.621 124.379C167.219 124.793 166.73 125 166.155 125C165.82 125 165.532 124.936 165.293 124.808C165.053 124.689 164.852 124.527 164.689 124.32C164.526 124.103 164.349 123.777 164.157 123.344C163.975 122.9 163.817 122.511 163.683 122.175ZM155.232 116.156H161.527L158.351 107.209L155.232 116.156Z" fill="white"/>
<path d="M178.501 121.362L175.123 107.549V122.515C175.123 123.344 174.941 123.965 174.577 124.379C174.223 124.793 173.748 125 173.154 125C172.579 125 172.11 124.798 171.746 124.394C171.382 123.98 171.2 123.353 171.2 122.515V105.36C171.2 104.414 171.439 103.778 171.918 103.452C172.397 103.117 173.044 102.949 173.858 102.949H175.181C175.976 102.949 176.551 103.023 176.905 103.171C177.269 103.319 177.538 103.585 177.71 103.97C177.883 104.354 178.079 104.98 178.299 105.848L181.361 117.724L184.422 105.848C184.642 104.98 184.839 104.354 185.011 103.97C185.184 103.585 185.447 103.319 185.802 103.171C186.166 103.023 186.745 102.949 187.541 102.949H188.863C189.677 102.949 190.324 103.117 190.803 103.452C191.282 103.778 191.522 104.414 191.522 105.36V122.515C191.522 123.344 191.34 123.965 190.975 124.379C190.621 124.793 190.142 125 189.538 125C188.973 125 188.508 124.793 188.144 124.379C187.78 123.965 187.598 123.344 187.598 122.515V107.549L184.221 121.362C184 122.259 183.818 122.92 183.674 123.344C183.54 123.758 183.286 124.137 182.913 124.482C182.539 124.827 182.022 125 181.361 125C180.862 125 180.441 124.887 180.096 124.66C179.751 124.443 179.483 124.162 179.291 123.817C179.099 123.472 178.946 123.092 178.831 122.678C178.726 122.254 178.616 121.815 178.501 121.362Z" fill="white"/>
<defs>
<linearGradient id="paint0_linear_1_3" x1="370.346" y1="77.6533" x2="-27.1302" y2="75.4514" gradientUnits="userSpaceOnUse">
<stop stop-color="#295BCC"/>
<stop offset="0.5" stop-color="#59B097"/>
<stop offset="1" stop-color="#66A03A"/>
</linearGradient>
</defs>
</svg>

<svg width="352" height="127" fill="none" xmlns="http://www.w3.org/2000/svg"><path d="M5.26 81.486c5.857-5.11 23.388-12.703 46.666-2.19 29.097 13.141 58.194-16.974 70.272-22.997 12.078-6.023 23.607-2.19 29.097 10.95 2.013 5.476 6.807 17.632 9.882 22.45 3.843 6.023 11.651 6.795 24.156-26.282 12.627-33.4 9.333-32.305 12.627-44.351 3.294-12.046 14.823-25.188 14.274 7.665-.549 32.853-2.745 39.424-4.941 54.208-2.266 15.252-2.745 32.305 2.745 39.971 5.49 7.665 25.803-55.85 27.45-60.23 1.647-4.381 12.627-27.378 10.98-4.381-1.647 22.997-6.039 39.97-2.196 48.184 3.843 8.213 11.529 1.643 20.862-9.308 9.333-10.951 9.882-15.331 21.96-8.761 12.078 6.57 7.686 14.236 27.45 10.951s26.352-4.38 30.195-3.285" stroke="url(#paint0_linear_1_3)" stroke-width="10.348" stroke-linecap="round"/><path d="M12.562 121.362l-3.378-13.813v14.966c0 .829-.182 1.45-.546 1.864-.354.414-.829.621-1.423.621-.575 0-1.044-.202-1.408-.606-.364-.414-.546-1.041-.546-1.879V105.36c0-.946.24-1.582.718-1.908.48-.335 1.126-.503 1.94-.503h1.323c.795 0 1.37.074 1.724.222.365.148.633.414.805.799.173.384.37 1.01.59 1.878l3.06 11.876 3.062-11.876c.22-.868.417-1.494.59-1.878.172-.385.435-.651.79-.799.364-.148.943-.222 1.739-.222h1.322c.814 0 1.461.168 1.94.503.48.326.719.962.719 1.908v17.155c0 .829-.182 1.45-.546 1.864-.355.414-.834.621-1.438.621-.565 0-1.03-.207-1.394-.621-.364-.414-.546-1.035-.546-1.864v-14.966l-3.377 13.813c-.22.897-.403 1.558-.546 1.982-.134.414-.388.793-.762 1.138-.374.345-.891.518-1.552.518-.498 0-.92-.113-1.265-.34a2.31 2.31 0 01-.805-.843 5.198 5.198 0 01-.46-1.139c-.105-.424-.215-.863-.33-1.316zm17.433-5.694v-10.426c0-.888.191-1.553.575-1.997.393-.443.905-.665 1.538-.665.66 0 1.183.222 1.566.665.393.444.59 1.109.59 1.997v10.663c0 1.212.129 2.228.387 3.046.269.809.738 1.44 1.409 1.893.67.444 1.61.666 2.817.666 1.667 0 2.845-.454 3.535-1.361.69-.917 1.035-2.302 1.035-4.156v-10.751c0-.897.192-1.563.575-1.997.383-.443.896-.665 1.538-.665s1.16.222 1.552.665c.402.434.604 1.1.604 1.997v10.426c0 1.696-.163 3.111-.49 4.245-.315 1.133-.919 2.129-1.81 2.987a7.012 7.012 0 01-2.673 1.597c-1.016.335-2.204.503-3.564.503-1.62 0-3.014-.177-4.183-.532-1.169-.365-2.122-.922-2.86-1.672-.737-.759-1.279-1.725-1.624-2.898-.345-1.183-.517-2.593-.517-4.23zm21.774 3.904l10.822-13.325h-9.3c-.65 0-1.144-.147-1.48-.443-.325-.296-.488-.685-.488-1.169 0-.502.163-.907.489-1.212.335-.316.828-.474 1.48-.474h11.986c1.552 0 2.328.745 2.328 2.234 0 .709-.129 1.276-.388 1.7-.258.424-.78 1.11-1.566 2.056l-10.118 12.393h11.153c.66 0 1.154.143 1.48.429.326.276.489.666.489 1.169 0 .522-.163.936-.49 1.242-.325.305-.818.458-1.48.458H53.005c-.929 0-1.628-.212-2.098-.636-.47-.433-.704-1.01-.704-1.73 0-.246.038-.473.115-.68.077-.207.177-.4.302-.577.134-.187.316-.419.546-.695.23-.286.431-.533.604-.74zm35.599-1.449c0 1.311-.33 2.49-.992 3.535-.651 1.045-1.61 1.863-2.874 2.455-1.265.591-2.764.887-4.499.887-2.079 0-3.794-.404-5.145-1.213a7.023 7.023 0 01-2.342-2.322c-.595-.976-.892-1.922-.892-2.839 0-.533.178-.986.532-1.361.364-.384.824-.576 1.38-.576.45 0 .829.147 1.135.443.316.296.585.735.805 1.316.269.691.556 1.267.862 1.731.317.463.757.848 1.323 1.153.565.296 1.308.444 2.227.444 1.265 0 2.29-.301 3.076-.902.795-.611 1.193-1.371 1.193-2.278 0-.719-.216-1.301-.647-1.745-.421-.453-.972-.798-1.653-1.035-.67-.237-1.571-.488-2.702-.754-1.513-.365-2.783-.789-3.808-1.272-1.016-.493-1.825-1.159-2.429-1.997-.594-.848-.891-1.898-.891-3.15 0-1.193.316-2.253.948-3.179.633-.927 1.548-1.637 2.746-2.13 1.197-.503 2.606-.754 4.225-.754 1.293 0 2.41.167 3.349.503.948.325 1.734.764 2.357 1.316.622.542 1.078 1.114 1.365 1.715.287.602.431 1.188.431 1.76 0 .523-.182.996-.546 1.42-.355.414-.8.621-1.337.621-.488 0-.862-.123-1.12-.37-.25-.256-.523-.67-.82-1.242-.383-.818-.843-1.454-1.38-1.908-.536-.463-1.398-.695-2.587-.695-1.101 0-1.993.252-2.673.754-.67.493-1.006 1.09-1.006 1.79 0 .434.115.808.345 1.124.23.315.546.587.949.813.402.227.81.405 1.221.533.412.128 1.093.315 2.041.562 1.188.286 2.261.601 3.22.946.967.345 1.786.764 2.457 1.257a5.022 5.022 0 011.581 1.879c.383.749.575 1.671.575 2.765zm17.304-11.55h-4.657v15.75c0 .907-.196 1.583-.589 2.026-.393.434-.9.651-1.523.651-.633 0-1.15-.222-1.553-.666-.392-.443-.589-1.114-.589-2.011v-15.75h-4.656c-.729 0-1.27-.163-1.624-.488-.355-.335-.532-.774-.532-1.316 0-.562.182-1.006.546-1.332.374-.325.91-.488 1.61-.488h13.567c.737 0 1.284.168 1.638.503.364.335.546.774.546 1.317 0 .542-.182.981-.546 1.316-.364.325-.91.488-1.638.488zm10.448 8.785h-1.495v6.965c0 .917-.196 1.592-.589 2.026-.393.434-.905.651-1.538.651-.68 0-1.207-.227-1.58-.68-.374-.454-.561-1.119-.561-1.997v-16.682c0-.946.206-1.632.618-2.056.412-.424 1.078-.636 1.998-.636h6.941c.958 0 1.778.045 2.458.134.68.078 1.293.246 1.84.502a5.318 5.318 0 011.753 1.228 5.289 5.289 0 011.15 1.863c.268.7.402 1.445.402 2.233 0 1.617-.445 2.909-1.336 3.875-.882.966-2.223 1.652-4.025 2.056.757.414 1.481 1.025 2.171 1.834a17.92 17.92 0 011.839 2.588c.546.907.968 1.73 1.265 2.47.307.729.46 1.232.46 1.508 0 .286-.091.572-.273.858a1.8 1.8 0 01-.719.651 2.186 2.186 0 01-1.063.251c-.479 0-.882-.118-1.208-.355a3.326 3.326 0 01-.848-.872c-.23-.355-.546-.878-.948-1.568l-1.71-2.928c-.614-1.075-1.165-1.893-1.653-2.455-.479-.562-.968-.947-1.466-1.154-.498-.207-1.126-.31-1.883-.31zm2.443-9.111h-3.938v5.96h3.823c1.026 0 1.888-.088 2.587-.266.7-.187 1.232-.498 1.596-.931.373-.444.56-1.051.56-1.82 0-.601-.148-1.128-.445-1.582a2.698 2.698 0 00-1.236-1.035c-.499-.217-1.481-.326-2.947-.326zm26.89.089h-9.614v5.324h8.853c.651 0 1.135.153 1.451.459.326.295.489.69.489 1.183 0 .493-.158.897-.474 1.213-.317.305-.805.458-1.466.458h-8.853v6.167h9.945c.671 0 1.174.163 1.509.488.345.316.517.74.517 1.272 0 .513-.172.932-.517 1.257-.335.316-.838.473-1.509.473h-11.598c-.93 0-1.6-.212-2.012-.636-.403-.424-.604-1.109-.604-2.055v-16.298c0-.631.091-1.144.273-1.538.182-.404.465-.695.848-.873.393-.187.891-.281 1.495-.281h11.267c.681 0 1.184.158 1.509.474.336.305.503.71.503 1.212 0 .513-.167.927-.503 1.243-.325.305-.828.458-1.509.458zm19.23 15.839l-1.006-2.721h-8.566l-1.006 2.78c-.393 1.085-.728 1.819-1.006 2.204-.278.375-.733.562-1.365.562-.537 0-1.011-.202-1.423-.606-.412-.405-.618-.863-.618-1.376 0-.296.048-.601.144-.917.096-.315.254-.754.474-1.316l5.39-14.079.546-1.449c.22-.572.45-1.046.69-1.42a2.84 2.84 0 01.963-.902c.402-.237.895-.355 1.48-.355.594 0 1.087.118 1.48.355.403.226.724.522.963.887.249.365.455.759.618 1.183.173.414.388.971.647 1.671l5.504 13.991c.431 1.065.647 1.839.647 2.322 0 .503-.206.966-.618 1.39a1.967 1.967 0 01-1.466.621c-.335 0-.623-.064-.862-.192a1.742 1.742 0 01-.604-.488c-.163-.217-.34-.543-.532-.976-.182-.444-.34-.833-.474-1.169zm-8.451-6.019h6.295l-3.176-8.947-3.119 8.947zm23.269 5.206l-3.378-13.813v14.966c0 .829-.182 1.45-.546 1.864-.354.414-.829.621-1.423.621-.575 0-1.044-.202-1.408-.606-.364-.414-.546-1.041-.546-1.879V105.36c0-.946.239-1.582.718-1.908.479-.335 1.126-.503 1.94-.503h1.323c.795 0 1.37.074 1.724.222.364.148.633.414.805.799.173.384.369 1.01.589 1.878l3.062 11.876 3.061-11.876c.22-.868.417-1.494.589-1.878.173-.385.436-.651.791-.799.364-.148.943-.222 1.739-.222h1.322c.814 0 1.461.168 1.94.503.479.326.719.962.719 1.908v17.155c0 .829-.182 1.45-.547 1.864-.354.414-.833.621-1.437.621-.565 0-1.03-.207-1.394-.621-.364-.414-.546-1.035-.546-1.864v-14.966l-3.377 13.813c-.221.897-.403 1.558-.547 1.982-.134.414-.388.793-.761 1.138-.374.345-.891.518-1.552.518-.499 0-.92-.113-1.265-.34a2.312 2.312 0 01-.805-.843 5.189 5.189 0 01-.46-1.139c-.105-.424-.215-.863-.33-1.316z" fill="#fff"/><defs><linearGradient id="paint0_linear_1_3" x1="370.346" y1="77.653" x2="-27.13" y2="75.451" gradientUnits="userSpaceOnUse"><stop stop-color="#295BCC"/><stop offset=".5" stop-color="#59B097"/><stop offset="1" stop-color="#66A03A"/></linearGradient></defs></svg>
